outline/svg/linkedin-outline.svg

<svg xmlns="http://www.w3.org/2000/svg" viewBox="0 0 24 24"><g data-name="Layer 2"><g data-name="linkedin"><rect width="24" height="24" transform="rotate(180 12 12)" opacity="0"/><path d="M20 22h-1.67a2 2 0 0 1-2-2v-5.37a.92.92 0 0 0-.69-.93.84.84 0 0 0-.67.19.85.85 0 0 0-.3.65V20a2 2 0 0 1-2 2H11a2 2 0 0 1-2-2v-5.46a6.5 6.5 0 1 1 13 0V20a2 2 0 0 1-2 2zm-4.5-10.31a3.73 3.73 0 0 1 .47 0 2.91 2.91 0 0 1 2.36 2.9V20H20v-5.46a4.5 4.5 0 1 0-9 0V20h1.67v-5.46a2.85 2.85 0 0 1 2.83-2.85z"/><path d="M6 22H4a2 2 0 0 1-2-2V10a2 2 0 0 1 2-2h2a2 2 0 0 1 2 2v10a2 2 0 0 1-2 2zM4 10v10h2V10z"/><path d="M5 7a3 3 0 1 1 3-3 3 3 0 0 1-3 3zm0-4a1 1 0 1 0 1 1 1 1 0 0 0-1-1z"/></g></g></svg>

<svg xmlns="http://www.w3.org/2000/svg" viewBox="0 0 24 24"><defs><style>.cls-1{fill:#fff;opacity:0;}.cls-2{fill:#231f20;}</style></defs><title>linkedin</title><g id="Layer_2" data-name="Layer 2"><g id="linkedin"><g id="linkedin-2" data-name="linkedin"><rect class="cls-1" width="24" height="24" transform="translate(24 24) rotate(180)"/><path class="cls-2" d="M20,22H18.33a2,2,0,0,1-2-2V14.63a.92.92,0,0,0-.69-.93.84.84,0,0,0-.67.19.85.85,0,0,0-.3.65V20a2,2,0,0,1-2,2H11a2,2,0,0,1-2-2V14.54a6.5,6.5,0,1,1,13,0V20A2,2,0,0,1,20,22ZM15.5,11.69a3.73,3.73,0,0,1,.47,0,2.91,2.91,0,0,1,2.36,2.9V20H20V14.54a4.5,4.5,0,1,0-9,0V20h1.67V14.54a2.85,2.85,0,0,1,2.83-2.85Z"/><path class="cls-2" d="M6,22H4a2,2,0,0,1-2-2V10A2,2,0,0,1,4,8H6a2,2,0,0,1,2,2V20A2,2,0,0,1,6,22ZM4,10H4V20H6V10Z"/><path class="cls-2" d="M5,7A3,3,0,1,1,8,4,3,3,0,0,1,5,7ZM5,3A1,1,0,1,0,6,4,1,1,0,0,0,5,3Z"/></g></g></g></svg>
